svg/UnitedNations-Flags/flag-ke.svg

<svg height="256" viewBox="-120 -80 240 160" width="256" xmlns="http://www.w3.org/2000/svg" xmlns:xlink="http://www.w3.org/1999/xlink"><defs><path d="m-1 55.43h2v-93.43c2-2 2-5 2-8 0-2 0-10-3-18.663-3 8.663-3 16.663-3 18.663 0 3 0 6 2 8v93.43" id="2" stroke-miterlimit="10" transform="matrix(.86603.5-.5.86603 0 0)"/></defs><path fill="#fff" d="m-120-80h240v160h-240z"/><path d="m-120-80h240v48h-240z"/><path fill="#060" d="m-120 32h240v48h-240z"/><g id="0"><use height="160" width="240" xlink:href="#2"/><use height="160" width="240" xlink:href="#2" fill="#fff"/></g><use height="160" transform="scale(-1 1)" width="240" xlink:href="#0"/><path d="m-120-24v48h101c3 8 13 24 19 24 6 0 16-16 19-24h101v-48h-101c-3-8-13-24-19-24-6 0-16 16-19 24h-101" fill="#b00"/><path d="m19 24c3-8 5-16 5-24 0-8-2-16-5-24-3 8-5 16-5 24 0 8 2 16 5 24" id="1"/><use height="160" transform="scale(-1 1)" width="240" xlink:href="#1"/><g fill="#fff"><ellipse cx="0" cy="0" rx="4" ry="6"/><path d="m1 5.85c0 0 4 8 4 21 0 13-4 21-4 21v-42" id="3"/><use height="160" transform="scale(-1-1)" width="240" xlink:href="#3"/><use height="160" transform="scale(-1 1)" width="240" xlink:href="#3"/><use height="160" transform="scale(1-1)" width="240" xlink:href="#3"/></g></svg>

<?xml version="1.0" encoding="UTF-8" standalone="no"?>
<svg height="256" id="svg2567" inkscape:output_extension="org.inkscape.output.svg.inkscape" inkscape:version="0.46" sodipodi:docname="Flag_of_Kenya.svg" sodipodi:version="0.32" version="1.0" viewBox="-120 -80 240 160" width="256" xmlns="http://www.w3.org/2000/svg" xmlns:cc="http://creativecommons.org/ns#" xmlns:dc="http://purl.org/dc/elements/1.1/" xmlns:inkscape="http://www.inkscape.org/namespaces/inkscape" xmlns:rdf="http://www.w3.org/1999/02/22-rdf-syntax-ns#" xmlns:sodipodi="http://sodipodi.sourceforge.net/DTD/sodipodi-0.dtd" xmlns:svg="http://www.w3.org/2000/svg" xmlns:xlink="http://www.w3.org/1999/xlink">
  <metadata>
    <rdf:RDF xmlns:cc="http://web.resource.org/cc/" xmlns:dc="http://purl.org/dc/elements/1.1/" xmlns:rdf="http://www.w3.org/1999/02/22-rdf-syntax-ns#">
      <cc:Work rdf:about="">
        <dc:title></dc:title>
        <dc:description></dc:description>
        <dc:subject>
          <rdf:Bag>
            <rdf:li>unsorted</rdf:li>
          </rdf:Bag>
        </dc:subject>
        <dc:publisher>
          <cc:Agent rdf:about="http://www.openclipart.org/">
            <dc:title>Open Clip Art Library, Source: Wikimedia Commons, Source: Wikimedia Commons, Source: Wikimedia Commons, Source: Wikimedia Commons</dc:title>
          </cc:Agent>
        </dc:publisher>
        <dc:creator>
          <cc:Agent>
            <dc:title></dc:title>
          </cc:Agent>
        </dc:creator>
        <dc:rights>
          <cc:Agent>
            <dc:title></dc:title>
          </cc:Agent>
        </dc:rights>
        <dc:date></dc:date>
        <dc:format>image/svg+xml</dc:format>
        <dc:type rdf:resource="http://purl.org/dc/dcmitype/StillImage"/>
        <cc:license rdf:resource="http://en.wikipedia.org/wiki/Public_domain"/>
        <dc:language>en</dc:language>
      </cc:Work>
    </rdf:RDF>
  </metadata>
  <sodipodi:namedview bordercolor="#666666" borderopacity="1.0" gridtolerance="10.0" guidetolerance="10.0" id="base" inkscape:current-layer="svg2567" inkscape:cx="450" inkscape:cy="300" inkscape:pageopacity="0.0" inkscape:pageshadow="2" inkscape:window-height="868" inkscape:window-width="887" inkscape:window-x="23" inkscape:window-y="33" inkscape:zoom="0.62111111" objecttolerance="10.0" pagecolor="#ffffff" showgrid="false"/>
  <defs id="defs2569">
    <inkscape:perspective id="perspective2604" inkscape:persp3d-origin="450 : 200 : 1" inkscape:vp_x="0 : 300 : 1" inkscape:vp_y="0 : 1000 : 0" inkscape:vp_z="900 : 300 : 1" sodipodi:type="inkscape:persp3d"/>
    <path d="M -1,55.425626 L 1,55.425626 L 1,-38 C 3,-40 3,-43 3,-46 C 3,-48 3,-56 0,-64.66323 C -3,-56 -3,-48 -3,-46 C -3,-43 -3,-40 -1,-38 L -1,55.425626 z" id="spearshape" stroke-miterlimit="10" style="stroke-miterlimit:10" transform="matrix(0.8660254,0.5,-0.5,0.8660254,0,0)"/>
  
  
  
  
<!-- 32*sqrt(3), -112/sqrt(3)-->  </defs>
  <rect height="160" id="rect2572" style="fill:#ffffff" width="240" x="-120" y="-80"/>
  <rect height="48" id="rect2574" width="240" x="-120" y="-80"/>
  <rect height="48" id="rect2576" style="fill:#006600" width="240" x="-120" y="32"/>
  <g id="spear">
    <use height="160" id="use2579" width="240" x="0" xlink:href="#spearshape" y="0"/>
    <use height="160" id="use2581" style="fill:#ffffff" width="240" x="0" xlink:href="#spearshape" y="0"/>
  </g>
  <use height="160" id="use2583" transform="scale(-1,1)" width="240" x="0" xlink:href="#spear" y="0"/>
  <path d="M -120,-24 L -120,24 L -19,24 C -16,32 -6,48 0,48 C 6,48 16,32 19,24 L 120,24 L 120,-24 L 19,-24 C 16,-32 6,-48 0,-48 C -6,-48 -16,-32 -19,-24 L -120,-24 z" id="path2585" style="fill:#bb0000"/>
  <path d="M 19,24 C 22,16 24,8 24,0 C 24,-8 22,-16 19,-24 C 16,-16 14,-8 14,0 C 14,8 16,16 19,24" id="deco_r"/>
  <use height="160" id="use2588" transform="scale(-1,1)" width="240" x="0" xlink:href="#deco_r" y="0"/>
  <g id="g2590" style="fill:#ffffff">
    <ellipse cx="0" cy="0" id="ellipse2592" rx="4" ry="6" sodipodi:cx="0" sodipodi:cy="0" sodipodi:rx="4" sodipodi:ry="6"/>
    <path d="M 1,5.85 C 1,5.85 5,13.85 5,26.85 C 5,39.85 1,47.85 1,47.85 L 1,5.85 z" id="deco_br"/>
    <use height="160" id="use2595" transform="scale(-1,-1)" width="240" x="0" xlink:href="#deco_br" y="0"/>
    <use height="160" id="use2597" transform="scale(-1,1)" width="240" x="0" xlink:href="#deco_br" y="0"/>
    <use height="160" id="use2599" transform="scale(1,-1)" width="240" x="0" xlink:href="#deco_br" y="0"/>
  </g>
</svg>
